src/shared/assets/image/icon.svg

<svg width="46" height="46" viewBox="0 0 46 46" fill="none" xmlns="http://www.w3.org/2000/svg">
<rect width="46" height="46" rx="23" fill="#CDCDCD"/>
<path d="M14.98 29.68C14.02 29.68 13.2867 29.3867 12.78 28.8C12.2733 28.2133 12.02 27.3733 12.02 26.28V16.08C12.02 15.8133 12.0867 15.6133 12.22 15.48C12.3533 15.3333 12.5533 15.26 12.82 15.26C13.0733 15.26 13.2733 15.3333 13.42 15.48C13.5667 15.6133 13.64 15.8133 13.64 16.08V26.16C13.64 26.88 13.78 27.42 14.06 27.78C14.3533 28.1267 14.78 28.3 15.34 28.3C15.46 28.3 15.5667 28.2933 15.66 28.28C15.7533 28.2667 15.8467 28.26 15.94 28.26C16.0867 28.2467 16.1867 28.28 16.24 28.36C16.3067 28.44 16.34 28.6 16.34 28.84C16.34 29.08 16.2867 29.26 16.18 29.38C16.0733 29.5 15.9 29.58 15.66 29.62C15.5533 29.6333 15.44 29.6467 15.32 29.66C15.2 29.6733 15.0867 29.68 14.98 29.68ZM20.898 29.68C19.938 29.68 19.2046 29.3867 18.698 28.8C18.1913 28.2133 17.938 27.3733 17.938 26.28V16.08C17.938 15.8133 18.0046 15.6133 18.138 15.48C18.2713 15.3333 18.4713 15.26 18.738 15.26C18.9913 15.26 19.1913 15.3333 19.338 15.48C19.4846 15.6133 19.558 15.8133 19.558 16.08V26.16C19.558 26.88 19.698 27.42 19.978 27.78C20.2713 28.1267 20.698 28.3 21.258 28.3C21.378 28.3 21.4846 28.2933 21.578 28.28C21.6713 28.2667 21.7646 28.26 21.858 28.26C22.0046 28.2467 22.1046 28.28 22.158 28.36C22.2246 28.44 22.258 28.6 22.258 28.84C22.258 29.08 22.2046 29.26 22.098 29.38C21.9913 29.5 21.818 29.58 21.578 29.62C21.4713 29.6333 21.358 29.6467 21.238 29.66C21.118 29.6733 21.0046 29.68 20.898 29.68Z" fill="#1971C2"/>
<path d="M28.6359 29.68C28.0093 29.68 27.3959 29.6267 26.7959 29.52C26.1959 29.4133 25.6359 29.26 25.1159 29.06C24.6093 28.86 24.1493 28.6067 23.7359 28.3C23.5759 28.18 23.4626 28.0467 23.3959 27.9C23.3426 27.74 23.3293 27.5867 23.3559 27.44C23.3959 27.28 23.4626 27.1467 23.5559 27.04C23.6626 26.9333 23.7893 26.8733 23.9359 26.86C24.0826 26.8467 24.2426 26.8933 24.4159 27C25.0159 27.4267 25.6559 27.74 26.3359 27.94C27.0159 28.1267 27.7826 28.22 28.6359 28.22C29.8359 28.22 30.7226 28 31.2959 27.56C31.8826 27.1067 32.1759 26.5133 32.1759 25.78C32.1759 25.18 31.9626 24.7133 31.5359 24.38C31.1226 24.0333 30.4226 23.76 29.4359 23.56L27.3559 23.14C26.1026 22.8733 25.1626 22.44 24.5359 21.84C23.9226 21.2267 23.6159 20.4133 23.6159 19.4C23.6159 18.7733 23.7426 18.2067 23.9959 17.7C24.2493 17.18 24.6026 16.74 25.0559 16.38C25.5093 16.0067 26.0493 15.72 26.6759 15.52C27.3026 15.32 27.9959 15.22 28.7559 15.22C29.5959 15.22 30.3759 15.34 31.0959 15.58C31.8293 15.8067 32.4893 16.1533 33.0759 16.62C33.2226 16.74 33.3226 16.88 33.3759 17.04C33.4293 17.1867 33.4359 17.3333 33.3959 17.48C33.3559 17.6133 33.2826 17.7267 33.1759 17.82C33.0826 17.9133 32.9559 17.9667 32.7959 17.98C32.6493 17.9933 32.4826 17.94 32.2959 17.82C31.7626 17.42 31.2093 17.1333 30.6359 16.96C30.0626 16.7733 29.4293 16.68 28.7359 16.68C28.0293 16.68 27.4159 16.7867 26.8959 17C26.3893 17.2133 25.9893 17.5267 25.6959 17.94C25.4159 18.34 25.2759 18.8067 25.2759 19.34C25.2759 19.98 25.4693 20.4867 25.8559 20.86C26.2559 21.2333 26.9026 21.5067 27.7959 21.68L29.8759 22.12C31.2226 22.4 32.2159 22.8267 32.8559 23.4C33.5093 23.96 33.8359 24.7267 33.8359 25.7C33.8359 26.2867 33.7159 26.8267 33.4759 27.32C33.2359 27.8133 32.8893 28.24 32.4359 28.6C31.9826 28.9467 31.4359 29.2133 30.7959 29.4C30.1559 29.5867 29.4359 29.68 28.6359 29.68Z" fill="#FD853A"/>
</svg>

<svg width="46" height="46" fill="none" xmlns="http://www.w3.org/2000/svg"><rect width="46" height="46" rx="23" fill="#CDCDCD"/><path d="M14.98 29.68c-.96 0-1.7-.3-2.2-.88a3.74 3.74 0 0 1-.76-2.52v-10.2c0-.27.07-.47.2-.6.13-.15.33-.22.6-.22.25 0 .45.07.6.22.15.13.22.33.22.6v10.08c0 .72.14 1.26.42 1.62.3.35.72.52 1.28.52.12 0 .23 0 .32-.02l.28-.02c.15-.01.25.02.3.1.07.08.1.24.1.48s-.05.42-.16.54c-.1.12-.28.2-.52.24a25.12 25.12 0 0 1-.68.06Zm5.92 0c-.96 0-1.7-.3-2.2-.88a3.74 3.74 0 0 1-.76-2.52v-10.2c0-.27.06-.47.2-.6.13-.15.33-.22.6-.22.25 0 .45.07.6.22.14.13.22.33.22.6v10.08c0 .72.14 1.26.42 1.62.3.35.72.52 1.28.52.12 0 .22 0 .32-.02l.28-.02c.14-.01.24.02.3.1s.1.24.1.48-.06.42-.16.54c-.1.12-.28.2-.52.24a25.12 25.12 0 0 1-.68.06Z" fill="#1971C2"/><path d="M28.64 29.68a10.49 10.49 0 0 1-3.52-.62 6 6 0 0 1-1.38-.76 1.05 1.05 0 0 1-.34-.4.92.92 0 0 1-.04-.46c.04-.16.1-.3.2-.4a.6.6 0 0 1 .38-.18c.14-.01.3.03.48.14.6.43 1.24.74 1.92.94a8.7 8.7 0 0 0 2.3.28c1.2 0 2.08-.22 2.66-.66.58-.45.88-1.05.88-1.78 0-.6-.22-1.07-.64-1.4a4.85 4.85 0 0 0-2.1-.82l-2.08-.42a5.74 5.74 0 0 1-2.82-1.3 3.3 3.3 0 0 1-.92-2.44 3.75 3.75 0 0 1 1.44-3.02c.45-.37.99-.66 1.62-.86a7.36 7.36 0 0 1 4.42.06 6 6 0 0 1 1.98 1.04c.14.12.24.26.3.42.05.15.06.3.02.44a.72.72 0 0 1-.22.34c-.1.1-.22.15-.38.16a.81.81 0 0 1-.5-.16 5.34 5.34 0 0 0-1.66-.86 6.11 6.11 0 0 0-3.74.04c-.51.21-.91.53-1.2.94-.28.4-.42.87-.42 1.4 0 .64.19 1.15.58 1.52.4.37 1.04.65 1.94.82l2.08.44a6.4 6.4 0 0 1 2.98 1.28c.65.56.98 1.33.98 2.3a3.65 3.65 0 0 1-1.4 2.9c-.46.35-1 .61-1.64.8a7.7 7.7 0 0 1-2.16.28Z" fill="#FD853A"/></svg>
